X:2665
T:CARILLON
Z: Yves BELOTTEAU
M:4/4
L:1/8
Q:1/4=120
K:G
|d/2dedcc3c|dcBA B3/2 z/2 G3/2d/2|dedc c3c|dcBA G3G|
BGBG A3A|cAcA B3/2 z/2 G|GABc d/2d/2d/2d/2de|dcB3/2 z/2 A3/2 z/2 B3/2 z/
2 |
G3/2 z/2 BG BGA3|AcAc AB3/2 z/2 |GGAB cd/2d/2d/2d/2d|edcB3/2 z/2 A3/2 z/
2 |
B3/2 z/2 G3/2 z/2 G3/2|


